public/img/transfer-bus.svg

<svg width="214" height="214" viewBox="0 0 214 214" fill="none" xmlns="http://www.w3.org/2000/svg">
<path d="M34.0586 192.085V207.312C34.0586 211.004 37.0547 214 40.746 214H62.0725C65.7639 214 68.76 211.004 68.76 207.312V192.085H34.0586Z" fill="#454545"/>
<path d="M145.238 192.085V207.312C145.238 211.004 148.234 214 151.926 214H173.252C176.944 214 179.94 211.004 179.94 207.312V192.085H145.238Z" fill="#454545"/>
<path d="M207.996 55.3525C206.076 55.3525 204.525 53.8008 204.525 51.8818C204.525 49.4276 202.525 47.4345 200.078 47.4345H196.266C194.346 47.4345 192.795 45.8828 192.795 43.9638C192.795 42.0449 194.347 40.4932 196.266 40.4932H200.078C206.357 40.4932 211.466 45.6026 211.466 51.8754C211.467 53.7943 209.915 55.3525 207.996 55.3525Z" fill="#CACACA"/>
<path d="M213.787 51.2664H199.863V88.8634H213.787V51.2664Z" fill="#6F6F6F"/>
<path d="M6.00581 55.3525C7.92519 55.3525 9.47647 53.8008 9.47647 51.8818C9.47647 49.4276 11.4695 47.4345 13.9238 47.4345H17.7359C19.6552 47.4345 21.2065 45.8828 21.2065 43.9638C21.2065 42.0449 19.6548 40.4932 17.7359 40.4932H13.9238C7.64416 40.4932 2.53516 45.6026 2.53516 51.8754C2.53473 53.7943 4.08643 55.3525 6.00581 55.3525Z" fill="#CACACA"/>
<path d="M14.1365 51.2664H0.212891V88.8634H14.1365V51.2664Z" fill="#6F6F6F"/>
<path d="M183.05 0H30.9491C23.566 0 17.5742 5.98529 17.5742 13.3749V133.67H196.425V13.3749C196.425 5.98529 190.439 0 183.05 0Z" fill="#86DAF1"/>
<path d="M17.5742 177.52V181.198C17.5742 188.581 23.5664 194.573 30.9491 194.573H183.05C190.439 194.573 196.425 188.58 196.425 181.198V177.52H17.5742Z" fill="#ED6262"/>
<path d="M196.425 158.293H17.5742V177.493H196.425V158.293Z" fill="#CD484B"/>
<path d="M196.425 129.376H17.5742V158.32H196.425V129.376Z" fill="#F3F3F3"/>
<path d="M196.425 37.4431H17.5742V121.017H196.425V37.4431Z" fill="#6F6F6F"/>
<path d="M111.776 37.4431H102.227V121.017H111.776V37.4431Z" fill="#454545"/>
<path d="M196.425 121.017H17.5742V129.376H196.425V121.017Z" fill="#86DAF1"/>
<path d="M36.8488 173.146C39.7371 173.146 42.0785 170.805 42.0785 167.916C42.0785 165.028 39.7371 162.687 36.8488 162.687C33.9606 162.687 31.6191 165.028 31.6191 167.916C31.6191 170.805 33.9606 173.146 36.8488 173.146Z" fill="#F3F3F3"/>
<path d="M50.1574 173.146C53.0457 173.146 55.3871 170.805 55.3871 167.916C55.3871 165.028 53.0457 162.687 50.1574 162.687C47.2691 162.687 44.9277 165.028 44.9277 167.916C44.9277 170.805 47.2691 173.146 50.1574 173.146Z" fill="#FFE21F"/>
<path d="M163.845 173.146C166.733 173.146 169.075 170.805 169.075 167.916C169.075 165.028 166.733 162.687 163.845 162.687C160.957 162.687 158.615 165.028 158.615 167.916C158.615 170.805 160.957 173.146 163.845 173.146Z" fill="#FFE21F"/>
<path d="M177.138 173.146C180.026 173.146 182.368 170.805 182.368 167.916C182.368 165.028 180.026 162.687 177.138 162.687C174.25 162.687 171.908 165.028 171.908 167.916C171.908 170.805 174.25 173.146 177.138 173.146Z" fill="#F3F3F3"/>
<path d="M177.259 136.579H164.439C160.427 136.579 157.17 139.836 157.17 143.848C157.17 147.861 160.42 151.111 164.439 151.111H177.259C181.272 151.111 184.529 147.861 184.529 143.848C184.522 139.836 181.272 136.579 177.259 136.579Z" fill="#FFBD49"/>
<path d="M48.4977 136.579H35.6775C31.6651 136.579 28.4082 139.836 28.4082 143.848C28.4082 147.861 31.6582 151.111 35.6775 151.111H48.4977C52.5101 151.111 55.7601 147.861 55.7601 143.848C55.767 139.836 52.5101 136.579 48.4977 136.579Z" fill="#FFBD49"/>
<path d="M157.965 5.83838H52.2687C45.1533 5.83838 39.3887 11.603 39.3887 18.7184C39.3887 25.8339 45.1533 31.6054 52.2687 31.6054H157.965C165.08 31.6054 170.845 25.8408 170.845 18.7184C170.845 11.6094 165.081 5.83838 157.965 5.83838Z" fill="#454545"/>
<path opacity="0.1" d="M196.425 37.4431H17.5742V77.9427C17.5742 81.7612 20.4966 85.2521 24.3953 85.4125C28.4547 85.6599 31.865 82.4099 31.865 78.3505V65.2497C31.865 61.839 34.7072 59.2442 38.1982 59.3248C38.1982 59.3248 38.1982 59.3248 38.2783 59.3248C38.2783 59.3248 38.2783 59.3248 38.3585 59.3248C41.7692 59.2446 44.6916 61.8394 44.6916 65.2497V79.728C44.6916 83.6267 47.5338 87.0374 51.3459 87.2784C55.4187 87.4387 58.7488 84.2892 58.8561 80.3233V60.983C58.8561 56.9171 62.2333 53.6736 66.3461 53.8542C70.1849 54.0817 73.0603 57.5123 73.0603 61.3442V79.8151C73.1741 83.5401 76.0163 86.8301 79.7611 87.0711C83.9007 87.2314 87.2309 83.9883 87.2309 79.9289L87.311 64.1933C87.311 60.1338 90.6416 56.8839 94.7808 57.0442C98.5993 57.2852 101.522 60.6955 101.522 64.5946V81.6276C101.602 85.4461 104.772 88.5292 108.584 88.5292C112.563 88.5292 115.726 85.2793 115.726 81.3871V61.0972C115.726 58.0076 118.02 55.1722 122.219 55.1722C125.469 54.9313 128.225 57.6067 128.225 60.7765V80.6315C128.225 84.5301 131.067 87.9344 134.886 88.1818C139.025 88.3422 142.436 85.0991 142.436 81.0397V66.2333C142.436 63.1304 144.75 60.3084 148.849 60.3084C152.34 60.3084 155.182 63.1506 155.182 66.5614V77.9569C155.182 81.7754 158.105 85.2663 161.923 85.4267C165.983 85.6741 169.474 82.4241 169.474 78.3647V65.264C169.474 61.8532 172.316 59.2584 175.727 59.339C175.807 59.339 175.807 59.339 175.807 59.339C175.887 59.339 175.887 59.339 175.967 59.339C179.378 59.2588 182.22 61.8536 182.22 65.264V79.7423C182.22 83.6409 185.142 87.0517 188.961 87.2926C193.1 87.4529 196.431 84.203 196.431 80.1435V37.4431H196.425Z" fill="white"/>
</svg>

<svg width="214" height="214" fill="none" xmlns="http://www.w3.org/2000/svg"><path d="M34.059 192.085v15.227A6.69 6.69 0 0040.746 214h21.326a6.69 6.69 0 006.688-6.688v-15.227H34.059zm111.179 0v15.227a6.69 6.69 0 006.688 6.688h21.326a6.69 6.69 0 006.688-6.688v-15.227h-34.702z" fill="#454545"/><path d="M207.996 55.352a3.468 3.468 0 01-3.471-3.47c0-2.454-2-4.447-4.447-4.447h-3.812a3.468 3.468 0 01-3.471-3.471 3.468 3.468 0 013.471-3.47h3.812c6.279 0 11.388 5.109 11.388 11.381a3.472 3.472 0 01-3.47 3.477z" fill="#CACACA"/><path d="M213.787 51.266h-13.924v37.597h13.924V51.266z" fill="#6F6F6F"/><path d="M6.006 55.352c1.92 0 3.47-1.551 3.47-3.47a4.45 4.45 0 014.448-4.447h3.812c1.92 0 3.47-1.552 3.47-3.471a3.468 3.468 0 00-3.47-3.47h-3.812c-6.28 0-11.389 5.109-11.389 11.381a3.473 3.473 0 003.47 3.477z" fill="#CACACA"/><path d="M14.136 51.266H.213v37.597h13.924V51.266z" fill="#6F6F6F"/><path d="M183.05 0H30.95c-7.384 0-13.376 5.985-13.376 13.375V133.67h178.851V13.375C196.425 5.985 190.439 0 183.05 0z" fill="#86DAF1"/><path d="M17.574 177.52v3.678c0 7.383 5.992 13.375 13.375 13.375H183.05c7.389 0 13.375-5.993 13.375-13.375v-3.678H17.575z" fill="#ED6262"/><path d="M196.425 158.293H17.575v19.2h178.85v-19.2z" fill="#CD484B"/><path d="M196.425 129.376H17.575v28.944h178.85v-28.944z" fill="#F3F3F3"/><path d="M196.425 37.443H17.575v83.574h178.85V37.443z" fill="#6F6F6F"/><path d="M111.776 37.443h-9.549v83.574h9.549V37.443z" fill="#454545"/><path d="M196.425 121.017H17.575v8.359h178.85v-8.359z" fill="#86DAF1"/><path d="M36.849 173.146a5.23 5.23 0 100-10.459 5.23 5.23 0 000 10.459z" fill="#F3F3F3"/><path d="M50.157 173.146a5.23 5.23 0 100-10.459 5.23 5.23 0 000 10.459zm113.688 0a5.23 5.23 0 100-10.46 5.23 5.23 0 000 10.46z" fill="#FFE21F"/><path d="M177.138 173.146a5.23 5.23 0 100-10.46 5.23 5.23 0 000 10.46z" fill="#F3F3F3"/><path d="M177.259 136.579h-12.82a7.272 7.272 0 00-7.269 7.269 7.262 7.262 0 007.269 7.263h12.82c4.013 0 7.27-3.25 7.27-7.263-.007-4.012-3.257-7.269-7.27-7.269zm-128.761 0h-12.82a7.272 7.272 0 00-7.27 7.269 7.262 7.262 0 007.27 7.263h12.82a7.26 7.26 0 007.262-7.263c.007-4.012-3.25-7.269-7.262-7.269z" fill="#FFBD49"/><path d="M157.965 5.838H52.269c-7.116 0-12.88 5.765-12.88 12.88 0 7.116 5.764 12.887 12.88 12.887h105.696c7.115 0 12.88-5.764 12.88-12.887 0-7.109-5.764-12.88-12.88-12.88z" fill="#454545"/><path opacity=".1" d="M196.425 37.443H17.575v40.5c0 3.818 2.922 7.31 6.82 7.47 4.06.247 7.47-3.003 7.47-7.063v-13.1c0-3.411 2.842-6.006 6.333-5.925h.16c3.411-.08 6.334 2.514 6.334 5.925v14.478c0 3.899 2.842 7.31 6.654 7.55 4.073.16 7.403-2.989 7.51-6.955v-19.34c0-4.066 3.377-7.31 7.49-7.129 3.839.228 6.714 3.658 6.714 7.49v18.471c.114 3.725 2.956 7.015 6.701 7.256 4.14.16 7.47-3.083 7.47-7.142l.08-15.736c0-4.06 3.33-7.31 7.47-7.149 3.818.241 6.741 3.652 6.741 7.55v17.034c.08 3.818 3.25 6.901 7.062 6.901 3.979 0 7.142-3.25 7.142-7.142v-20.29c0-3.09 2.294-5.925 6.493-5.925 3.25-.24 6.006 2.435 6.006 5.605v19.855c0 3.898 2.842 7.302 6.661 7.55 4.139.16 7.55-3.083 7.55-7.142V66.233c0-3.103 2.314-5.925 6.413-5.925 3.491 0 6.333 2.843 6.333 6.253v11.396c0 3.818 2.923 7.31 6.741 7.47 4.06.247 7.551-3.003 7.551-7.062V65.264c0-3.41 2.842-6.006 6.253-5.925h.24c3.411-.08 6.253 2.515 6.253 5.925v14.478c0 3.899 2.922 7.31 6.741 7.55 4.139.16 7.47-3.089 7.47-7.148v-42.7h-.006z" fill="#fff"/></svg>
